X:1
T:Divine Mysteries
T:P Stanfield
T:(Sweet Sacrament divine)
T:66 66 886
%%score { ( 1 2 ) | ( 3 4 ) }
L:1/8
M:none
K:Eb
V:1 treble nm="Organ"
V:2 treble 
V:3 bass 
V:4 bass 
V:1
 G4 | B6 A2 F2 G2 | E8 G4 | C6 D2 E2 F2 | G4 !breath!F4 G4 | B6 A2 F2 G2 | E8 G4 | A6 A2 G2 F2 | %8
 !breath!E8 E4 | e6 e2 d2 c2 | B3 A G6 G2 | c6 c2 B2 G2 | F2 E2 !breath!F4 G4 | B6 A2 F2 G2 | %14
 E8 G4 | A6 A2 G2 F2 | E8 |] %17
V:2
 E4 | E6 E2 D2 D2 | E8 D4 | C6 B,2 B,2 E2 | E4 D4 E4 | F6 E2 E2 D2 | E8 E4 | F6 E2 D2 D2 | E8 E4 | %9
 E6 G2 G2 A2 | E3 D E6 E2 | E6 E2 E2 E2 | C2 E2 D4 E4 | F6 E2 E2 D2 | E8 E4 | F6 E2 D2 D2 | E8 |] %17
V:3
 B,4 | G,6 C2 A,2 B,2 | G,8 G,4 | A,6 F,2 E,2 C2 | B,8 B,4 | F,6 A,2 C2 B,2 | G,8 C4 | %7
 C6 C2 B,2 A,2 | G,8 G,4 | C6 E2 E2 E2 | B,3 B, B,6 B,2 | A,6 A,2 B,2 B,2 | =A,2 A,2 B,4 B,4 | %13
 F,6 A,2 C2 B,2 | G,8 C4 | C6 C2 B,2 A,2 | G,8 |] %17
V:4
 E,4 | E,6 A,,2 B,,2 B,,2 | C,8 B,,4 | A,,6 A,,2 G,,2 A,,2 | B,,8 E,4 | D,6 C,2 A,,2 B,,2 | %6
 C,8 C,4 | F,6 F,2 B,,2 B,,2 | E,8 E,4 | C,6 C2 B,2 A,2 | G,3 F, E,6 E,2 | A,6 A,2 G,2 E,2 | %12
 F,2 F,2 B,,4 E,4 | D,6 C,2 A,,2 B,,2 | C,8 C,4 | F,6 F,2 B,,2 B,,2 | E,8 |] %17

